X:128
T:Chorus Jig
M:2/2
C:Traditional American
S:Colin Hume's website,  colinhume.com  - chords can also be printed below the stave.
Q:1/2=112
K:D
P:A
|: AG | "D"F2DF ABAG | FADF A2d2 | D3F ABAF | "A"GFEF G2 :|
P:B
[K: G]Bc | "G"dBcA BGFG | "D"Ad^cd A2B=c | "G"dBcA BGFG | "D"AcBA "G"G2Bc |
"G"dBcA BGFG | "C"ABcd efge | "G"dBcA BGFG | "D"AcBA "G"G2 |]
P:C
[K: D] |: ag | "D"fddd fddd | fdfg "A"abag | "D"fddd fddd | "C"=cdef g2 :|
P:D
[K: G]Bc | "G"dBcA BGFG | "D"Ad^cd A2B=c | "G"dBcA BGFG | "D"AcBA "G"G2Bc |
"G"dBcA BGFG | "C"ABcd efge | "G"dBcA BGFG | "D"AcBA "G"G2 |]

